X:1
T:Christian Endeavor, LM
T:Christian Endeavor, LM
T:Percy S. Foster, 1905
T:Public Domain Courtesy of the Cyber Hymnal™
C:Percy S. Foster, 1905
Z:Public Domain
Z:Courtesy of the Cyber Hymnal™
%%score ( 1 2 ) ( 3 4 )
L:1/8
Q:1/4=107
M:4/4
K:Eb
V:1 treble 
V:2 treble 
V:3 bass 
V:4 bass 
V:1
 [GB]2 | [Ge]2 [EG]2 [Gd]2 [Gc]2 | [DB]3 [DB] [EG]2 [GB]2 | [Ac]2 [EB]2 [DA]2 [EG]2 | %4
 [EF]2 [=Ae]2 !fermata![_Ad]2 B2 | [Ge]2 [EG]2 [^Fd]2 [Fc]2 | [DB]3 [DA] [EG]2 [_DG]2 | %7
 [FA]2 [EB]2 [Ac]2 [^Fe]2 | [DG]3 [DF] !fermata!E2 |] %9
V:2
 x2 | x8 | x8 | x8 | x6 B2 | x8 | x8 | x8 | x4 E2 |] %9
V:3
 [E,B,]2 | [E,B,]2 [E,B,]2 [E,D]2 [E,C]2 | [B,,B,]3 [B,,B,] [E,B,]2 [E,B,]2 | %3
 [A,E]2 [G,B,]2 [F,B,]2 [E,B,]2 | [C,=A,]2 [F,C]2 !fermata![B,,B,]2 B,2 | %5
 [E,B,]2 [E,B,]2 [E,=A,]2 [E,A,]2 | [B,,B,]3 [B,,B,] [C,G,]2 [=E,B,]2 | %7
 [F,C]2 [G,B,]2 [A,E]2 [=A,C]2 | B,3 [B,,A,] !fermata![E,G,]2 |] %9
V:4
 x2 | x8 | x8 | x8 | x6 B,2 | x8 | x8 | x8 | B,3 x3 |] %9

